X:2450
T:3-part Hoppvals
A:Jmtland
C:e. Oskar Andersson
M:2/4
O:Sweden
R:Polka
Z:Richard Robinson 
%%TUNEURL: http://www.leeds.ac.uk/music/Info/RRTuneBk/gettune/00000bee.html
%%ID:00000bee
K:D
L:1/8
f2 {g}fe/f/| aA fe/f/| gA eA| fA dA|\
f2 {g}fe/f/| aA fe/f/| gA Bc|1 d3 A :|2 d2z e/e/|:
K:A
ea a/g/a| c'a a/g/a| eb b/a/b| ec' c'/b/c'|\
ea a/g/a| c'a a/g/a| be fg|1 a2 ze/e/ :|2 a2 z2 |:
K:D
AB/c/ de/f/| gb a2| g{fg}f ed| fe/d/ cB|\
AB/c/ de/f/| gb a2| g{fg}f ec|\
M:3/4
AB/c/ dd d2:|
M:2/4
L:1/8
d2 {e}dc/d/| fA dc/d/| eA cA| dA FA|\
d2 {e}dc/d/| fA dc/d/| eA GE|1 D3 A :|2 D2 zA/A/|:\
K:A
Ac c/B/c| ec c/B/c| Ad d/c/d| Ae e/d/e|\
Ac c/B/c| ec c/B/c| dB ed|1 c2 zA/A/ :|2 c2 z2 |:\
K:D
F2A2 | Bg {fg}f2| ed cB| dc/B/ AG|\
{FG}F2 A2| Bg {fg}f2| ed cA| \
M:3/4
AG/E/ D[FA] [F2A2] :|
